X: 38321
T: Stack Of Oats, The
R: barndance
M: 4/4
K: Gmajor
|:G>A|B2 B2 B>AB>G|D6 G>A|B2 A>B c2 B2|E6 E2|
A>GF>G A2 D2|G>FG>A B2 e2|(3dcB (3cBA E2 F2|G6:|
B>c|d2 d2 g2 g2|d>ed>B G2 B>c|d2 d2 g2 d2|f8|
c>BA>B c2 d2|f2 f2 f4|e2 e2 e>d^c>e|d6 B>c|
d2 d2 g2 g2|d>ed>B G2 B>c|d2 d2 g2 d2|b8|
a>ba>f d2 a2|g>ag>d B2 e2|(3dcB (3cBA E2 F2|G6||

